symbols/web/nest_cam_iq/materialsymbolsoutlined/nest_cam_iq_wght700_24px.svg

<svg xmlns="http://www.w3.org/2000/svg" height="24" width="24"><path d="M8.55 23.525q-1.325 0-2.238-.913Q5.4 21.7 5.4 20.375h5.025V15.95q-2.875-.7-4.437-2.762-1.563-2.063-1.563-4.638 0-3.2 2.188-5.388Q8.8.975 12 .975q3.175 0 5.375 2.2t2.2 5.375q0 2.575-1.562 4.638-1.563 2.062-4.438 2.762v4.425H18.6q0 1.325-.912 2.237-.913.913-2.238.913ZM12 12.975q1.85 0 3.138-1.3 1.287-1.3 1.287-3.125 0-1.85-1.287-3.138Q13.85 4.125 12 4.125q-1.825 0-3.125 1.287-1.3 1.288-1.3 3.138 0 1.825 1.3 3.125t3.125 1.3Zm0-2.625q-.75 0-1.275-.525Q10.2 9.3 10.2 8.55q0-.75.525-1.288.525-.537 1.275-.537.75 0 1.275.537.525.538.525 1.288t-.525 1.275q-.525.525-1.275.525Z"/></svg>

<svg xmlns="http://www.w3.org/2000/svg" height="24" width="24"><path d="M8.55 23.525Q7.225 23.525 6.312 22.612Q5.4 21.7 5.4 20.375H10.425V15.95Q7.55 15.25 5.988 13.188Q4.425 11.125 4.425 8.55Q4.425 5.35 6.613 3.162Q8.8 0.975 12 0.975Q15.175 0.975 17.375 3.175Q19.575 5.375 19.575 8.55Q19.575 11.125 18.013 13.188Q16.45 15.25 13.575 15.95V20.375H18.6Q18.6 21.7 17.688 22.612Q16.775 23.525 15.45 23.525ZM12 12.975Q13.85 12.975 15.138 11.675Q16.425 10.375 16.425 8.55Q16.425 6.7 15.138 5.412Q13.85 4.125 12 4.125Q10.175 4.125 8.875 5.412Q7.575 6.7 7.575 8.55Q7.575 10.375 8.875 11.675Q10.175 12.975 12 12.975ZM12 10.35Q11.25 10.35 10.725 9.825Q10.2 9.3 10.2 8.55Q10.2 7.8 10.725 7.262Q11.25 6.725 12 6.725Q12.75 6.725 13.275 7.262Q13.8 7.8 13.8 8.55Q13.8 9.3 13.275 9.825Q12.75 10.35 12 10.35Z"/></svg>
